_includes/icons/ios-resize-horizontal.svg

<svg fill="#666" height="50" viewBox="0 0 50 50" width="50" xmlns="http://www.w3.org/2000/svg"><path d="m12.28125 13.09375c-.226562.03125-.4375.144531-.59375.3125l-10.90625 10.875-.6875.71875.6875.71875 10.90625 10.875c.242188.296875.628906.433594 1.003906.347656.371094-.085937.664063-.378906.75-.75.085938-.375-.050781-.761718-.347656-1.003906l-9.15625-9.1875h42.125l-9.15625 9.1875c-.296875.242188-.433594.628906-.347656 1.003906.085937.371094.378906.664063.75.75.375.085938.761719-.050781 1.003906-.347656l10.90625-10.875.6875-.71875-.6875-.71875-10.90625-10.875c-.207031-.222656-.507812-.335937-.8125-.3125-.390625.039063-.722656.300781-.847656.667969-.128906.371094-.027344.78125.253906 1.050781l9.15625 9.1875h-42.125l9.15625-9.1875c.3125-.296875.402344-.761719.21875-1.152344-.1875-.394531-.601562-.621093-1.03125-.566406z"/></svg>

<svg xmlns="http://www.w3.org/2000/svg" viewBox="0 0 50 50" width="50" height="50" fill="#666"><path d="M 12.28125 13.09375 C 12.054688 13.125 11.84375 13.238281 11.6875 13.40625 L 0.78125 24.28125 L 0.09375 25 L 0.78125 25.71875 L 11.6875 36.59375 C 11.929688 36.890625 12.316406 37.027344 12.691406 36.941406 C 13.0625 36.855469 13.355469 36.5625 13.441406 36.191406 C 13.527344 35.816406 13.390625 35.429688 13.09375 35.1875 L 3.9375 26 L 46.0625 26 L 36.90625 35.1875 C 36.609375 35.429688 36.472656 35.816406 36.558594 36.191406 C 36.644531 36.5625 36.9375 36.855469 37.308594 36.941406 C 37.683594 37.027344 38.070313 36.890625 38.3125 36.59375 L 49.21875 25.71875 L 49.90625 25 L 49.21875 24.28125 L 38.3125 13.40625 C 38.105469 13.183594 37.804688 13.070313 37.5 13.09375 C 37.109375 13.132813 36.777344 13.394531 36.652344 13.761719 C 36.523438 14.132813 36.625 14.542969 36.90625 14.8125 L 46.0625 24 L 3.9375 24 L 13.09375 14.8125 C 13.40625 14.515625 13.496094 14.050781 13.3125 13.660156 C 13.125 13.265625 12.710938 13.039063 12.28125 13.09375 Z"/></svg>
